X:1
T:Title
%%score ( 1 2 ) { 3 | ( 4 5 ) }
L:1/8
Q:1/4=112
M:4/4
K:C
V:1 treble nm="Grand Piano, Soprano"
V:2 treble 
V:3 bass nm="Choir Pad, O Herre Gott Begnade Mich"
V:4 bass 
V:5 bass 
V:1
 z4 [B,E]4 | [DA]2 [CA]2 [DG]2 E2 | [DG]2 [^FA]2 [GB]4 | [DG]4 [GB]2 [Gc]2 | [Fd]4 [EB]4 | %5
 [Ec]2 [EB]2 [^CA]4 | z2 [EG]2 [EA]2 [^GB]2 | [Ac]2 [EA]2 [DB]4 | [^CE]4 [E^c]4 | %9
 [EA]2 [D^G]2 [DA]2 [^CE]2 | [DF]4 [CE]4 | z4 [B,E]4 | [DA]2 [CA]2 [DG]2 E2 | [DG]2 [^FA]2 [GB]4 | %14
 [DG]4 [GB]2 [Gc]2 | [Fd]4 [EB]4 | [Ec]2 [EB]2 [^CA]4 | z2 [EG]2 [EA]2 [^GB]2 | [Ac]2 [EA]2 [DB]4 | %19
 [^CE]4 [E^c]4 | [EA]2 [D^G]2 [DA]2 [^CE]2 | [DF]4 [CE]4 | [Ae]4 [^Ge]2 [Ae]2 | d3 c B2 d2 | %24
 [Ec]2 [Ec]2 [EB]4 | [EA]4 [GB]2 [Gc]2 | [Fd]4 [EG]4 | [DA]2 [DB]2 [Ec]4 | z4 [EG]4 | %29
 [FA]2 [DG]2 [CE]2 [CG]2 | [CF]2 [CE]2 [G,C]4 | [DG]4 [^FA]2 [GB]2 | [Ec]4 [EG]4 | %33
 [FA]2 [DG]2 [^CE]4 | z2 [A,D]2 [CE]2 [DG]2 | z4 F4 | [B,E]8 |] %37
V:2
 x8 | x8 | x8 | x8 | x8 | x8 | x8 | x8 | x8 | x8 | x8 | x8 | x8 | x8 | x8 | x8 | x8 | x8 | x8 | %19
 x8 | x8 | x8 | x8 | A4 G4 | x8 | x8 | x8 | x8 | x8 | x8 | x8 | x8 | x8 | x8 | x8 | %35
 [EA]2 [CE]2 A,B,/C/ DC | x8 |] %37
V:3
 z4 G,4 | F,2 E,2 D,2 G,2 | G,2[K:treble] C2 D4 | B,4 D2 G,2 | A,4 G,4 | A,2 ^G,2 A,4 | %6
 z2[K:treble] B,2 C2 D2 | E2 E2[K:bass] B,4 | A,4 A,4 | A,2 B,2 E,2 A,2 | A,4 A,4 | z4 G,4 | %12
 F,2 E,2 D,2 G,2 | G,2[K:treble] C2 D4 | B,4 D2 G,2 | A,4 G,4 | A,2 ^G,2 A,4 | %17
 z2[K:treble] B,2 C2 D2 | E2 E2[K:bass] B,4 | A,4 A,4 | A,2 B,2 E,2 A,2 | A,4[K:treble] A,4 | %22
 C4 B,2 ^C2 | D6 z2 | G,2 A,2 ^G,4 | C4 D2 G,2 | A,4 C4 | A,2 G,2 G,4 | z4 C4 | C2 B,2 A,2 G,2 | %30
 A,2 G,2 E,4 | G,4[K:treble] C2 D2 | C4 C4 | C2[K:bass] _B,2 A,4 | z2 F,2 G,2 G,2 | %35
 C2 G,2 F,2 A,2 | ^G,8 |] %37
V:4
 z4 E,4 | D,2 A,,2 B,,2 C,2 | B,,2 A,,2 G,,4 | G,4 G,2 E,2 | D,4 E,4 | C,2 E,2 A,,4 | %6
 z2 E,2 C,2 B,,2 | A,,2 A,,2 ^G,,4 | A,,4 A,,4 | C,2 B,,2 A,,2 A,,2 | D,4 A,,4 | z4 E,4 | %12
 D,2 A,,2 B,,2 C,2 | B,,2 A,,2 G,,4 | G,4 G,2 E,2 | D,4 E,4 | C,2 E,2 A,,4 | z2 E,2 C,2 B,,2 | %18
 A,,2 A,,2 ^G,,4 | A,,4 A,,4 | C,2 B,,2 A,,2 A,,2 | D,4 A,,4 | A,,4 E,2 A,2 | ^F,4 z2 B,2 | %24
 C,2 A,,2 E,4 | A,4 G,2 E,2 | D,4 E,4 | F,2 z2 C,4 | z4 C,4 | F,,2 G,,2 A,,2 E,,2 | F,,2 C,2 C,4 | %31
 B,,4 A,,2 G,,2 | A,,4 C,4 | F,,2 G,,2 A,,4 | z2 D,2 C,2 B,,2 | A,,2 C,2 D,4 | E,8 |] %37
V:5
 x8 | x8 | x8 | x8 | x8 | x8 | x8 | x8 | x8 | x8 | x8 | x8 | x8 | x8 | x8 | x8 | x8 | x8 | x8 | %19
 x8 | x8 | x8 | x8 | z4 G,4 | x8 | x8 | x8 | x8 | x8 | x8 | x8 | x8 | x8 | x8 | x8 | x8 | x8 |] %37

